X: 10368
T: Donal O'Connor's
R: slide
M: 12/8
K: Gmajor
|:c|BcB B2A G2E D3|DEF G2A c3 c2c|
BcB B2A G2E D3|DEG A2F G3 G2:|
|:E|D2B B3 d2B B3|E2G A2B c2B A2E|
D2B B3 d2B B3|c2D EGA G3 G2:|

